SVG_Azure_All/Restore Point Collection.svg

<?xml version="1.0" encoding="UTF-8" standalone="no"?>
<!-- Generated by Microsoft Visio, SVG Export Restore Point Collection.svg Page-1 -->

<svg
   xmlns:dc="http://purl.org/dc/elements/1.1/"
   xmlns:cc="http://creativecommons.org/ns#"
   xmlns:rdf="http://www.w3.org/1999/02/22-rdf-syntax-ns#"
   xmlns:svg="http://www.w3.org/2000/svg"
   xmlns="http://www.w3.org/2000/svg"
   xmlns:sodipodi="http://sodipodi.sourceforge.net/DTD/sodipodi-0.dtd"
   xmlns:inkscape="http://www.inkscape.org/namespaces/inkscape"
   width="0.79783726in"
   height="0.66921383in"
   viewBox="0 0 57.444081 48.183644"
   xml:space="preserve"
   class="st8"
   version="1.1"
   id="svg65"
   sodipodi:docname="Restore Point Collection.svg"
   style="font-size:12px;overflow:visible;color-interpolation-filters:sRGB;fill:none;fill-rule:evenodd;stroke-linecap:square;stroke-miterlimit:3"
   inkscape:version="0.92.5 (2060ec1f9f, 2020-04-08)"><metadata
   id="metadata69"><rdf:RDF><cc:Work
       rdf:about=""><dc:format>image/svg+xml</dc:format><dc:type
         rdf:resource="http://purl.org/dc/dcmitype/StillImage" /></cc:Work></rdf:RDF></metadata><sodipodi:namedview
   pagecolor="#ffffff"
   bordercolor="#666666"
   borderopacity="1"
   objecttolerance="10"
   gridtolerance="10"
   guidetolerance="10"
   inkscape:pageopacity="0"
   inkscape:pageshadow="2"
   inkscape:window-width="640"
   inkscape:window-height="480"
   id="namedview67"
   showgrid="false"
   inkscape:zoom="1.5231781"
   inkscape:cx="38.29684"
   inkscape:cy="32.113764"
   inkscape:window-x="0"
   inkscape:window-y="0"
   inkscape:window-maximized="0"
   inkscape:current-layer="svg65" />
	<style
   type="text/css"
   id="style2">
	<![CDATA[
		.st1 {fill:#005ba1;stroke:none;stroke-linecap:butt;stroke-width:34}
		.st2 {fill:#86d633;stroke:none;stroke-linecap:butt;stroke-width:34}
		.st3 {fill:url(#grad0-10);stroke:none;stroke-linecap:butt;stroke-width:34}
		.st4 {fill:url(#grad0-14);stroke:none;stroke-linecap:butt;stroke-width:34}
		.st5 {fill:#c3f1ff;stroke:none;stroke-linecap:butt;stroke-width:34}
		.st6 {fill:url(#grad0-20);stroke:none;stroke-linecap:butt;stroke-width:34}
		.st7 {fill:#ffffff;stroke:none;stroke-linecap:butt;stroke-width:34}
		.st8 {fill:none;fill-rule:evenodd;font-size:12px;overflow:visible;stroke-linecap:square;stroke-miterlimit:3}
	]]>
	</style>

	<defs
   id="Patterns_And_Gradients">
		<linearGradient
   id="grad0-10"
   x1="-1.7296266"
   y1="72.601694"
   x2="41.469039"
   y2="72.601694"
   gradientTransform="scale(0.98630242,1.0138878)"
   gradientUnits="userSpaceOnUse">
			<stop
   offset="0"
   stop-color="#0078d4"
   stop-opacity="1"
   id="stop4" />
			<stop
   offset="1"
   stop-color="#5ea0ef"
   stop-opacity="1"
   id="stop6" />
		</linearGradient>
		<linearGradient
   id="grad0-14"
   x1="0"
   y1="74.152449"
   x2="12.463098"
   y2="74.152449"
   gradientTransform="scale(0.74540057,1.3415606)"
   gradientUnits="userSpaceOnUse">
			<stop
   offset="0"
   stop-color="#32bedd"
   stop-opacity="1"
   id="stop9" />
			<stop
   offset="1"
   stop-color="#9cebff"
   stop-opacity="1"
   id="stop11" />
		</linearGradient>
		<linearGradient
   id="grad0-20"
   x1="0"
   y1="74.152449"
   x2="12.463098"
   y2="74.152449"
   gradientTransform="scale(0.74540057,1.3415606)"
   gradientUnits="userSpaceOnUse">
			<stop
   offset="0"
   stop-color="#32bedd"
   stop-opacity="1"
   id="stop14" />
			<stop
   offset="1"
   stop-color="#9cebff"
   stop-opacity="1"
   id="stop16" />
		</linearGradient>
	</defs>
	<g
   id="g63"
   transform="translate(-33.999264,-34.0043)">
		<title
   id="title20">Page-1</title>
		<g
   id="group1876-1"
   transform="translate(34.7504,-34.0157)">
			<title
   id="title22">Restore Point Collection</title>
			<g
   id="group1877-2">
				<title
   id="title24">Sheet.1877</title>
				<g
   id="shape1878-3"
   transform="translate(14.3561,-3.99759)">
					<title
   id="title26">Sheet.1878</title>
					<ellipse
   cx="21.1684"
   cy="94.427597"
   rx="21.1684"
   ry="21.7771"
   class="st1"
   id="ellipse28"
   style="fill:#005ba1;stroke:none;stroke-width:34;stroke-linecap:butt" />
				</g>
				<g
   id="shape1879-5">
					<title
   id="title31">Sheet.1879</title>
					<path
   d="m 20.66,68.02 a 21.9706,22.6024 -180 0 0 -7.87,41.05 l 0.75,-1.94 a 0.417143,0.429139 0 0 1 0.718769,-0.10894 L 19.69,114.22 a 0.429978,0.442343 0 0 1 -0.06739,0.614 0.417143,0.429139 0 0 1 -0.208571,0.0891 L 10.7,116.2 a 0.420352,0.43244 0 0 1 -0.471692,-0.37632 0.433187,0.445644 0 0 1 0.02567,-0.22117 L 11.36,112.72 A 25.558,26.293 0 0 1 0,96.84 22.3524,22.9952 0 0 1 15.62,68.77 21.6914,22.3152 0 0 1 20.66,68.02 Z"
   class="st2"
   id="path33"
   inkscape:connector-curvature="0"
   style="fill:#86d633;stroke:none;stroke-width:34;stroke-linecap:butt" />
				</g>
				<g
   id="shape1880-7"
   transform="translate(6.09925,-5.08364)">
					<title
   id="title36">Sheet.1880</title>
					<path
   d="m 19.58,73.61 a 21.2743,21.8861 -180 0 0 -15.38,37.02 20.4849,21.074 -180 0 0 1.98,1.78 l 0.24,-0.62 a 1.52097,1.56471 0 0 1 1.45,-0.99 1.50171,1.5449 0 0 1 0.53,0.11 1.51776,1.5614 0 0 1 0.63,0.49 l 3.61,4.8 a 21.2871,21.8993 -180 1 0 6.94,-42.59 z"
   class="st3"
   id="path38"
   inkscape:connector-curvature="0"
   style="fill:url(#grad0-10);stroke:none;stroke-width:34;stroke-linecap:butt" />
				</g>
				<g
   id="shape1881-11"
   transform="translate(25.6832,-14.9637)">
					<title
   id="title41">Sheet.1881</title>
					<path
   d="M 9.29,99.48 V 110.6 L 0,116.2 v -11.14 z"
   class="st4"
   id="path43"
   inkscape:connector-curvature="0"
   style="fill:url(#grad0-14);stroke:none;stroke-width:34;stroke-linecap:butt" />
				</g>
				<g
   id="shape1882-15"
   transform="translate(16.3937,-26.0817)">
					<title
   id="title46">Sheet.1882</title>
					<path
   d="M 18.58,110.6 9.32,116.2 0,110.6 9.32,105.02 Z"
   class="st5"
   id="path48"
   inkscape:connector-curvature="0"
   style="fill:#c3f1ff;stroke:none;stroke-width:34;stroke-linecap:butt" />
				</g>
				<g
   id="shape1883-17"
   transform="translate(16.3937,-14.9637)">
					<title
   id="title51">Sheet.1883</title>
					<path
   d="M 9.29,105.09 V 116.2 L 0,110.6 V 99.48 Z"
   class="st6"
   id="path53"
   inkscape:connector-curvature="0"
   style="fill:url(#grad0-20);stroke:none;stroke-width:34;stroke-linecap:butt" />
				</g>
				<g
   id="shape1884-21"
   transform="translate(11.3527,-12.072)">
					<title
   id="title56">Sheet.1884</title>
					<path
   d="M 8.16,88.8 H 1.58 A 1.57873,1.62412 -180 0 0 0,90.43 v 6.79 a 0.789363,0.812062 -180 0 0 0.789363,0.812062 L 1.32,98.04 A 0.789363,0.812062 -180 0 0 2.109363,97.227938 L 2.1,90.94 H 8.16 A 0.789363,0.812062 -180 0 0 8.923692,90.124636 L 8.93,89.61 A 0.789363,0.812062 -180 0 0 8.163099,88.797938 Z m 0,25.09 H 2.08 v -6.23 A 0.789363,0.812062 -180 0 0 1.290637,106.84794 L 0.79,106.85 A 0.789363,0.812062 -180 0 0 6.37e-4,107.66206 L 0,114.55 a 1.57873,1.62412 -180 0 0 1.56,1.65 h 6.6 a 0.815033,0.838471 -180 0 0 0.776527,-0.87478 L 8.92,115.24 v -0.54 a 0.789363,0.812062 -180 0 0 -0.766901,-0.81206 z m 18.8,-25.01 h -6.48 a 0.789363,0.812062 -180 0 0 -0.792571,0.812062 L 19.68,90.21 a 0.789363,0.812062 -180 0 0 0.71556,0.881385 L 20.47,91.09 h 6.06 v 6.18 a 0.789363,0.812062 -180 0 0 0.789363,0.812062 L 27.87,98.09 a 0.789363,0.812062 -180 0 0 0.789363,-0.812062 L 28.66,90.5 a 1.57873,1.62412 -180 0 0 -1.57,-1.63 c -0.05,0 -0.09,0 -0.13,0.01 z m 0.81,18.02 h -0.5 a 0.789363,0.812062 -180 0 0 -0.789363,0.81536 L 26.48,113.97 h -6.01 a 0.789363,0.812062 -180 0 0 -0.789363,0.81206 L 19.68,115.32 a 0.789363,0.812062 -180 0 0 0.789363,0.81536 L 27.06,116.14 a 1.6044,1.65053 -180 0 0 1.6,-1.63 v -6.8 a 0.789363,0.812062 -180 0 0 -0.786154,-0.81536 0.77011,0.792256 -180 0 0 -0.102681,0.003 z"
   class="st7"
   id="path58"
   inkscape:connector-curvature="0"
   style="fill:#ffffff;stroke:none;stroke-width:34;stroke-linecap:butt" />
				</g>
			</g>
		</g>
	</g>
</svg>

<?xml version="1.0" encoding="UTF-8" standalone="no"?>
<!DOCTYPE svg PUBLIC "-//W3C//DTD SVG 1.1//EN" "http://www.w3.org/Graphics/SVG/1.1/DTD/svg11.dtd">
<!-- Generated by Microsoft Visio, SVG Export Restore Point Collection.svg Page-1 -->
<svg xmlns="http://www.w3.org/2000/svg" xmlns:xlink="http://www.w3.org/1999/xlink" xmlns:ev="http://www.w3.org/2001/xml-events"
		width="1.74227in" height="1.61395in" viewBox="0 0 125.443 116.205" xml:space="preserve" color-interpolation-filters="sRGB"
		class="st8">
	<style type="text/css">
	<![CDATA[
		.st1 {fill:#005ba1;stroke:none;stroke-linecap:butt;stroke-width:34}
		.st2 {fill:#86d633;stroke:none;stroke-linecap:butt;stroke-width:34}
		.st3 {fill:url(#grad0-10);stroke:none;stroke-linecap:butt;stroke-width:34}
		.st4 {fill:url(#grad0-14);stroke:none;stroke-linecap:butt;stroke-width:34}
		.st5 {fill:#c3f1ff;stroke:none;stroke-linecap:butt;stroke-width:34}
		.st6 {fill:url(#grad0-20);stroke:none;stroke-linecap:butt;stroke-width:34}
		.st7 {fill:#ffffff;stroke:none;stroke-linecap:butt;stroke-width:34}
		.st8 {fill:none;fill-rule:evenodd;font-size:12px;overflow:visible;stroke-linecap:square;stroke-miterlimit:3}
	]]>
	</style>

	<defs id="Patterns_And_Gradients">
		<linearGradient id="grad0-10" x1="0" y1="0" x2="1" y2="0" gradientTransform="rotate(-90 0.5 0.5)">
			<stop offset="0" stop-color="#0078d4" stop-opacity="1"/>
			<stop offset="1" stop-color="#5ea0ef" stop-opacity="1"/>
		</linearGradient>
		<linearGradient id="grad0-14" x1="0" y1="0" x2="1" y2="0" gradientTransform="rotate(-158.85452407621 0.5 0.5)">
			<stop offset="0" stop-color="#32bedd" stop-opacity="1"/>
			<stop offset="1" stop-color="#9cebff" stop-opacity="1"/>
		</linearGradient>
		<linearGradient id="grad0-20" x1="0" y1="0" x2="1" y2="0" gradientTransform="rotate(-90 0.5 0.5)">
			<stop offset="0" stop-color="#32bedd" stop-opacity="1"/>
			<stop offset="1" stop-color="#9cebff" stop-opacity="1"/>
		</linearGradient>
	</defs>
	<g>
		<title>Page-1</title>
		<g id="group1861-1" transform="translate(34.7504,-34.0157)">
			<title>Restore Point Collection</title>
			<g id="group1862-2">
				<title>Sheet.1862</title>
				<g id="shape1863-3" transform="translate(14.3561,-3.99759)">
					<title>Sheet.1863</title>
					<ellipse cx="21.1684" cy="94.4276" rx="21.1684" ry="21.7771" class="st1"/>
				</g>
				<g id="shape1864-5">
					<title>Sheet.1864</title>
					<path d="M20.66 68.02 A21.9706 22.6024 -180 0 0 12.79 109.07 L13.54 107.13 a0.417143 0.429139 0 0 1 0.718769
								 -0.108935 L19.69 114.22 a0.429978 0.442343 0 0 1 -0.0673846 0.613998 a0.417143 0.429139 0 0 1 -0.208571
								 0.0891288 L10.7 116.2 a0.420352 0.43244 0 0 1 -0.471692 -0.376322 a0.433187 0.445644 0 0 1 0.0256703
								 -0.221171 L11.36 112.72 A25.558 26.293 0 0 1 0 96.84 A22.3524 22.9952 0 0 1 15.62 68.77 A21.6914
								 22.3152 0 0 1 20.66 68.02 Z" class="st2"/>
				</g>
				<g id="shape1865-7" transform="translate(6.09925,-5.08364)">
					<title>Sheet.1865</title>
					<path d="M19.58 73.61 A21.2743 21.8861 -180 0 0 4.2 110.63 A20.4849 21.074 -180 0 0 6.18 112.41 L6.42 111.79
								 A1.52097 1.56471 0 0 1 7.87 110.8 A1.50171 1.5449 0 0 1 8.4 110.91 A1.51776 1.5614 0 0 1 9.03 111.4
								 L12.64 116.2 A21.2871 21.8993 -180 1 0 19.58 73.61 Z" class="st3"/>
				</g>
				<g id="shape1866-11" transform="translate(25.6832,-14.9637)">
					<title>Sheet.1866</title>
					<path d="M9.29 99.48 L9.29 110.6 L0 116.2 L0 105.06 L9.29 99.48 Z" class="st4"/>
				</g>
				<g id="shape1867-15" transform="translate(16.3937,-26.0817)">
					<title>Sheet.1867</title>
					<path d="M18.58 110.6 L9.32 116.2 L0 110.6 L9.32 105.02 L18.58 110.6 Z" class="st5"/>
				</g>
				<g id="shape1868-17" transform="translate(16.3937,-14.9637)">
					<title>Sheet.1868</title>
					<path d="M9.29 105.09 L9.29 116.2 L0 110.6 L0 99.48 L9.29 105.09 Z" class="st6"/>
				</g>
				<g id="shape1869-21" transform="translate(11.3527,-12.072)">
					<title>Sheet.1869</title>
					<path d="M8.16 88.8 L1.58 88.8 A1.57873 1.62412 -180 0 0 0 90.43 L0 97.22 a0.789363 0.812062 -180 0 0 0.789363
								 0.812062 L1.32 98.04 a0.789363 0.812062 -180 0 0 0.789363 -0.812062 L2.1 90.94 L8.16 90.94 a0.789363
								 0.812062 -180 0 0 0.763692 -0.815364 L8.93 89.61 a0.789363 0.812062 -180 0 0 -0.766901 -0.812062
								 ZM8.16 113.89 L2.08 113.89 L2.08 107.66 a0.789363 0.812062 -180 0 0 -0.789363 -0.812062 L0.79 106.85
								 a0.789363 0.812062 -180 0 0 -0.789363 0.812062 L0 114.55 A1.57873 1.62412 -180 0 0 1.56 116.2 L8.16
								 116.2 a0.815033 0.838471 -180 0 0 0.776527 -0.874783 L8.92 115.24 L8.92 114.7 a0.789363 0.812062
								 -180 0 0 -0.766901 -0.812062 L8.16 113.89 ZM26.96 88.88 L20.48 88.88 a0.789363 0.812062 -180 0 0
								 -0.792571 0.812062 L19.68 90.21 a0.789363 0.812062 -180 0 0 0.71556 0.881385 L20.47 91.09 L26.53
								 91.09 L26.53 97.27 a0.789363 0.812062 -180 0 0 0.789363 0.812062 L27.87 98.09 a0.789363 0.812062
								 -180 0 0 0.789363 -0.812062 L28.66 90.5 A1.57873 1.62412 -180 0 0 27.09 88.87 C27.04 88.87 27 88.87
								 26.96 88.88 ZM27.77 106.9 L27.27 106.9 a0.789363 0.812062 -180 0 0 -0.789363 0.815364 L26.48 113.97
								 L20.47 113.97 a0.789363 0.812062 -180 0 0 -0.789363 0.812062 L19.68 115.32 a0.789363 0.812062 -180
								 0 0 0.789363 0.815364 L27.06 116.14 A1.6044 1.65053 -180 0 0 28.66 114.51 L28.66 107.71 a0.789363
								 0.812062 -180 0 0 -0.786154 -0.815364 a0.77011 0.792256 -180 0 0 -0.102681 0.00330107 Z"
							class="st7"/>
				</g>
			</g>
		</g>
	</g>
</svg>
